assets/icons/qvision/zoom_out_map.svg

<svg xmlns="http://www.w3.org/2000/svg" enable-background="new 0 0 24 24" height="24" viewBox="0 0 24 24" width="24"><g><rect fill="none" height="24" width="24"/></g><g><g><g><path d="M15,3l2.3,2.3l-2.89,2.87l1.42,1.42L18.7,6.7L21,9V3H15z M3,9l2.3-2.3l2.87,2.89l1.42-1.42L6.7,5.3L9,3H3V9z M9,21 l-2.3-2.3l2.89-2.87l-1.42-1.42L5.3,17.3L3,15v6H9z M21,15l-2.3,2.3l-2.87-2.89l-1.42,1.42l2.89,2.87L15,21h6V15z"/></g></g></g></svg>

<svg width="24" height="24" viewBox="0 0 24 24" fill="none" xmlns="http://www.w3.org/2000/svg">
<g clip-path="url(#clip0_147_5700)">
<path d="M15 3L17.3 5.3L14.41 8.17L15.83 9.59L18.7 6.7L21 9V3H15ZM3 9L5.3 6.7L8.17 9.59L9.59 8.17L6.7 5.3L9 3H3V9ZM9 21L6.7 18.7L9.59 15.83L8.17 14.41L5.3 17.3L3 15V21H9ZM21 15L18.7 17.3L15.83 14.41L14.41 15.83L17.3 18.7L15 21H21V15Z" fill="#323232"/>
</g>
<defs>
<clipPath id="clip0_147_5700">
<rect width="24" height="24" fill="white"/>
</clipPath>
</defs>
</svg>
